X: 214
T:Liberty
M:4/4
L:1/8
F:http://blackrosetheband.googlepages.com/ABCTUNES.ABC May 2009
C:as played by Willie Jones
K:D
ea|:f2A2f2A2|f3g fedf|g2B2g2B2|g3a geag|
f2A2f2A2|{e}f3a fedB|ABcd egfe|1d4-d2 ag:|2 d4 dc/2B/2A2||
|:{F}A3B A2FE|D2DF f2d2|{F}A3B AFDF|E3F E4|
{F}A3B AGFE|DEFA f2d2|efed cABc|1d4 dc/2B/2A2:|2d4 d2 ag||
T:alt 7th measure of B Part
ez2d cABc

